X:921
T:The Seventh of September
C:Albinoni
N:Adapted from the Allegro of Albinoni's Concerto a cinque, opus 5 number 8.
L:1/8
M:2/4
R:Reel
S:Colin Hume's website,  colinhume.com  - chords can also be printed below the stave.
Q:1/4=106  %This is Philippe's tempo marking
%%MIDI ratio 3 1
%%MIDI chordprog 6      % Harpsichord
%%MIDI program 68       % Oboe
%%MIDI gchord GHIg
K:F
P:A
|: "F"f2 cf | "C"e2 zf | "Gm"ga b"G7"a | "C"ag za | "Bb"bg/b/ "F"af/a/ |
"A7"g"Dm"f z"F"c | "Bb"dB/d/ "F"cA/c/ | "C7"B"F"A z"Gm"g/f/ | "C"ef/a/ "C7"g>f |1 "F"f4 :|2 "F"f3 ||
K:C
P:B
"G7"g | "C"c2 Gc | "G"B2 zc | "Dm"de "D7"fe | "G"ed zg | "F"a/f/g/a/ "Dm"fd | "C"g/e/f/g/ "Am"eA |
"Dm"f/d/e/f/ "G"dG | "C"ed/c/ "G"fe/d/ | "C"gf/e/ "F"ag/f/ | "G"ba/g/ "Am"c'c | "Dm"f/g/e/f/ "G7"d>c | "C"c4 |]

